svgs/regular/quotes.svg

<svg xmlns="http://www.w3.org/2000/svg" viewBox="0 0 576 512"><!--! Font Awesome Pro 6.6.0 by @fontawesome - https://fontawesome.com License - https://fontawesome.com/license (Commercial License) Copyright 2024 Fonticons, Inc. --><path d="M0 96C0 43 43 0 96 0l8 0c13.3 0 24 10.7 24 24s-10.7 24-24 24l-8 0C69.5 48 48 69.5 48 96l48 0c26.5 0 48 21.5 48 48l0 48c0 26.5-21.5 48-48 48l-48 0c-26.5 0-48-21.5-48-48l0-24 0-24L0 96zm48 72l0 24 48 0 0-48-48 0 0 24zM176 96c0-53 43-96 96-96l8 0c13.3 0 24 10.7 24 24s-10.7 24-24 24l-8 0c-26.5 0-48 21.5-48 48l48 0c26.5 0 48 21.5 48 48l0 48c0 26.5-21.5 48-48 48l-48 0c-26.5 0-48-21.5-48-48l0-24 0-24 0-48zm48 48l0 24 0 24 48 0 0-48-48 0zM576 416c0 53-43 96-96 96l-8 0c-13.3 0-24-10.7-24-24s10.7-24 24-24l8 0c26.5 0 48-21.5 48-48l-48 0c-26.5 0-48-21.5-48-48l0-48c0-26.5 21.5-48 48-48l48 0c26.5 0 48 21.5 48 48l0 24 0 24 0 48zm-48-48l0-24 0-24-48 0 0 48 48 0zM400 416c0 53-43 96-96 96l-8 0c-13.3 0-24-10.7-24-24s10.7-24 24-24l8 0c26.5 0 48-21.5 48-48l-48 0c-26.5 0-48-21.5-48-48l0-48c0-26.5 21.5-48 48-48l48 0c26.5 0 48 21.5 48 48l0 24 0 24 0 48zm-48-72l0-24-48 0 0 48 48 0 0-24z"/></svg>

<svg xmlns="http://www.w3.org/2000/svg" viewBox="0 0 576 512"><!--! Font Awesome Pro 6.5.2 by @fontawesome - https://fontawesome.com License - https://fontawesome.com/license (Commercial License) Copyright 2024 Fonticons, Inc. --><path d="M0 96C0 43 43 0 96 0h8c13.3 0 24 10.7 24 24s-10.7 24-24 24H96C69.5 48 48 69.5 48 96H96c26.5 0 48 21.5 48 48v48c0 26.5-21.5 48-48 48H48c-26.5 0-48-21.5-48-48V168 144 96zm48 72l0 24H96V144H48v24zM176 96c0-53 43-96 96-96h8c13.3 0 24 10.7 24 24s-10.7 24-24 24h-8c-26.5 0-48 21.5-48 48h48c26.5 0 48 21.5 48 48v48c0 26.5-21.5 48-48 48H224c-26.5 0-48-21.5-48-48V168 144 96zm48 48v24 24h48V144H224zM576 416c0 53-43 96-96 96h-8c-13.3 0-24-10.7-24-24s10.7-24 24-24h8c26.5 0 48-21.5 48-48H480c-26.5 0-48-21.5-48-48V320c0-26.5 21.5-48 48-48h48c26.5 0 48 21.5 48 48v24 24 48zm-48-48V344 320H480v48h48zM400 416c0 53-43 96-96 96h-8c-13.3 0-24-10.7-24-24s10.7-24 24-24h8c26.5 0 48-21.5 48-48H304c-26.5 0-48-21.5-48-48V320c0-26.5 21.5-48 48-48h48c26.5 0 48 21.5 48 48v24 24 48zm-48-72V320H304v48h48V344z"/></svg>
